presets/Midnight-Flash/01-Midnight-Flash-Original.xmp
<?xpacket begin="﻿" id="W5M0MpCehiHzreSzNTczkc9d"?>
<x:xmpmeta xmlns:x="adobe:ns:meta/" x:xmptk="Adobe XMP Core">
  <rdf:RDF xmlns:rdf="http://www.w3.org/1999/02/22-rdf-syntax-ns#">
    <rdf:Description rdf:about="" xmlns:crs="http://ns.adobe.com/camera-raw-settings/1.0/"
      crs:PresetType="Normal"
      crs:Cluster=""
      crs:UUID="B9FA26AC-71EF-43D5-861D-7E4E206885A2"
      crs:SupportsAmount="True"
      crs:SupportsColor="True"
      crs:SupportsMonochrome="True"
      crs:SupportsHighDynamicRange="True"
      crs:SupportsNormalDynamicRange="True"
      crs:SupportsSceneReferred="True"
      crs:SupportsOutputReferred="True"
      crs:CameraModelRestriction=""
      crs:Copyright=""
      crs:ContactInfo=""
      crs:Version="15.3"
      crs:ProcessVersion="11.0"
      crs:HasSettings="True"
      crs:Contrast2012="18"
      crs:Highlights2012="-28"
      crs:Shadows2012="-22"
      crs:Whites2012="8"
      crs:Blacks2012="-30"
      crs:Texture="-4"
      crs:Clarity2012="-2"
      crs:Dehaze="-2"
      crs:Vibrance="-8"
      crs:Saturation="-5"
      crs:GrainAmount="24"
      crs:GrainSize="25"
      crs:GrainFrequency="50"
      crs:PostCropVignetteAmount="-8"
      crs:ColorGradeShadowHue="32"
      crs:ColorGradeShadowSat="12"
      crs:ColorGradeMidtoneHue="38"
      crs:ColorGradeMidtoneSat="7"
      crs:ColorGradeHighlightHue="48"
      crs:ColorGradeHighlightSat="8"
      crs:ColorGradeBlending="50"
      crs:ColorGradeBalance="-18"
      crs:HueAdjustmentRed="2"
      crs:HueAdjustmentOrange="-4"
      crs:HueAdjustmentYellow="-12"
      crs:HueAdjustmentGreen="-25"
      crs:HueAdjustmentAqua="-12"
      crs:HueAdjustmentBlue="-8"
      crs:HueAdjustmentPurple="0"
      crs:HueAdjustmentMagenta="0"
      crs:SaturationAdjustmentRed="-4"
      crs:SaturationAdjustmentOrange="-8"
      crs:SaturationAdjustmentYellow="-24"
      crs:SaturationAdjustmentGreen="-42"
      crs:SaturationAdjustmentAqua="-30"
      crs:SaturationAdjustmentBlue="-28"
      crs:SaturationAdjustmentPurple="-18"
      crs:SaturationAdjustmentMagenta="-16"
      crs:LuminanceAdjustmentRed="2"
      crs:LuminanceAdjustmentOrange="10"
      crs:LuminanceAdjustmentYellow="2"
      crs:LuminanceAdjustmentGreen="-8"
      crs:LuminanceAdjustmentAqua="-6"
      crs:LuminanceAdjustmentBlue="-12"
      crs:LuminanceAdjustmentPurple="0"
      crs:LuminanceAdjustmentMagenta="0">
      <crs:Name><rdf:Alt><rdf:li xml:lang="x-default">Midnight Flash — Original</rdf:li></rdf:Alt></crs:Name>
      <crs:ToneCurvePV2012><rdf:Seq>
          <rdf:li>0,</rdf:li><rdf:li>5</rdf:li><rdf:li>32,</rdf:li><rdf:li>24</rdf:li><rdf:li>64,</rdf:li><rdf:li>58</rdf:li><rdf:li>128,</rdf:li><rdf:li>128</rdf:li><rdf:li>192,</rdf:li><rdf:li>202</rdf:li><rdf:li>255,</rdf:li><rdf:li>250</rdf:li>
      </rdf:Seq></crs:ToneCurvePV2012>
      <crs:ToneCurvePV2012Red><rdf:Seq><rdf:li>0, 0</rdf:li><rdf:li>255, 255</rdf:li></rdf:Seq></crs:ToneCurvePV2012Red>
      <crs:ToneCurvePV2012Green><rdf:Seq><rdf:li>0, 0</rdf:li><rdf:li>255, 255</rdf:li></rdf:Seq></crs:ToneCurvePV2012Green>
      <crs:ToneCurvePV2012Blue><rdf:Seq><rdf:li>0, 4</rdf:li><rdf:li>64, 62</rdf:li><rdf:li>192, 188</rdf:li><rdf:li>255, 248</rdf:li></rdf:Seq></crs:ToneCurvePV2012Blue>
    </rdf:Description>
  </rdf:RDF>
</x:xmpmeta>
<?xpacket end="w"?>