presets/Midnight-Flash/02-Midnight-Flash-Clean.xmp
<x:xmpmeta xmlns:x="adobe:ns:meta/"><rdf:RDF xmlns:rdf="http://www.w3.org/1999/02/22-rdf-syntax-ns#"><rdf:Description rdf:about="" xmlns:crs="http://ns.adobe.com/camera-raw-settings/1.0/" crs:PresetType="Normal" crs:UUID="67F21D58-EE2B-46E7-A8EF-8D33B8B9E29B" crs:Version="15.3" crs:ProcessVersion="11.0" crs:HasSettings="True" crs:Contrast2012="12" crs:Highlights2012="-24" crs:Shadows2012="-15" crs:Whites2012="10" crs:Blacks2012="-24" crs:Texture="0" crs:Clarity2012="1" crs:Dehaze="0" crs:Vibrance="-5" crs:Saturation="-3" crs:GrainAmount="10" crs:PostCropVignetteAmount="-4" crs:SaturationAdjustmentYellow="-24" crs:SaturationAdjustmentGreen="-42" crs:SaturationAdjustmentAqua="-30" crs:SaturationAdjustmentBlue="-28" crs:LuminanceAdjustmentOrange="10"><crs:Name><rdf:Alt><rdf:li xml:lang="x-default">Midnight Flash — Clean</rdf:li></rdf:Alt></crs:Name><crs:ToneCurvePV2012><rdf:Seq><rdf:li>0, 3</rdf:li><rdf:li>32, 25</rdf:li><rdf:li>64, 59</rdf:li><rdf:li>128, 128</rdf:li><rdf:li>192, 201</rdf:li><rdf:li>255, 252</rdf:li></rdf:Seq></crs:ToneCurvePV2012></rdf:Description></rdf:RDF></x:xmpmeta>