presets/Midnight-Flash/03-Midnight-Flash-Soft.xmp
<x:xmpmeta xmlns:x="adobe:ns:meta/"><rdf:RDF xmlns:rdf="http://www.w3.org/1999/02/22-rdf-syntax-ns#"><rdf:Description rdf:about="" xmlns:crs="http://ns.adobe.com/camera-raw-settings/1.0/" crs:PresetType="Normal" crs:UUID="2DB67C99-A3CD-4592-A482-31DDB5A4C02E" crs:Version="15.3" crs:ProcessVersion="11.0" crs:HasSettings="True" crs:Contrast2012="4" crs:Highlights2012="-36" crs:Shadows2012="-10" crs:Whites2012="2" crs:Blacks2012="-18" crs:Texture="-8" crs:Clarity2012="-8" crs:Dehaze="-3" crs:Vibrance="-10" crs:Saturation="-6" crs:GrainAmount="18" crs:PostCropVignetteAmount="-5" crs:SaturationAdjustmentYellow="-24" crs:SaturationAdjustmentGreen="-42" crs:SaturationAdjustmentAqua="-30" crs:SaturationAdjustmentBlue="-28" crs:LuminanceAdjustmentOrange="10"><crs:Name><rdf:Alt><rdf:li xml:lang="x-default">Midnight Flash — Soft</rdf:li></rdf:Alt></crs:Name><crs:ToneCurvePV2012><rdf:Seq><rdf:li>0, 8</rdf:li><rdf:li>64, 62</rdf:li><rdf:li>128, 128</rdf:li><rdf:li>192, 198</rdf:li><rdf:li>255, 248</rdf:li></rdf:Seq></crs:ToneCurvePV2012></rdf:Description></rdf:RDF></x:xmpmeta>