presets/Midnight-Flash/04-Midnight-Flash-Strong.xmp
<x:xmpmeta xmlns:x="adobe:ns:meta/"><rdf:RDF xmlns:rdf="http://www.w3.org/1999/02/22-rdf-syntax-ns#"><rdf:Description rdf:about="" xmlns:crs="http://ns.adobe.com/camera-raw-settings/1.0/" crs:PresetType="Normal" crs:UUID="8BFC1391-1447-4795-ADA3-62FB0C21BBFF" crs:Version="15.3" crs:ProcessVersion="11.0" crs:HasSettings="True" crs:Contrast2012="28" crs:Highlights2012="-22" crs:Shadows2012="-30" crs:Whites2012="14" crs:Blacks2012="-38" crs:Texture="2" crs:Clarity2012="5" crs:Dehaze="3" crs:Vibrance="-6" crs:Saturation="-4" crs:GrainAmount="24" crs:PostCropVignetteAmount="-12" crs:SaturationAdjustmentGreen="-42" crs:SaturationAdjustmentBlue="-28" crs:LuminanceAdjustmentOrange="10"><crs:Name><rdf:Alt><rdf:li xml:lang="x-default">Midnight Flash — Strong</rdf:li></rdf:Alt></crs:Name></rdf:Description></rdf:RDF></x:xmpmeta>