presets/Midnight-Flash/05-Midnight-Flash-Warm.xmp
<x:xmpmeta xmlns:x="adobe:ns:meta/"><rdf:RDF xmlns:rdf="http://www.w3.org/1999/02/22-rdf-syntax-ns#"><rdf:Description rdf:about="" xmlns:crs="http://ns.adobe.com/camera-raw-settings/1.0/" crs:PresetType="Normal" crs:UUID="25E65B59-D31F-4F2C-AFBA-B8A1E432EBA6" crs:Version="15.3" crs:ProcessVersion="11.0" crs:HasSettings="True" crs:Contrast2012="16" crs:Highlights2012="-30" crs:Shadows2012="-20" crs:Whites2012="7" crs:Blacks2012="-28" crs:Texture="-4" crs:Clarity2012="-2" crs:Dehaze="-2" crs:Vibrance="-7" crs:Saturation="-4" crs:GrainAmount="22" crs:PostCropVignetteAmount="-8" crs:ColorGradeShadowHue="34" crs:ColorGradeShadowSat="14" crs:ColorGradeHighlightHue="48" crs:ColorGradeHighlightSat="10" crs:SaturationAdjustmentGreen="-42" crs:SaturationAdjustmentBlue="-28" crs:LuminanceAdjustmentOrange="10"><crs:Name><rdf:Alt><rdf:li xml:lang="x-default">Midnight Flash — Warm</rdf:li></rdf:Alt></crs:Name></rdf:Description></rdf:RDF></x:xmpmeta>