presets/Midnight-Flash/06-Midnight-Flash-Cool.xmp
<x:xmpmeta xmlns:x="adobe:ns:meta/"><rdf:RDF xmlns:rdf="http://www.w3.org/1999/02/22-rdf-syntax-ns#"><rdf:Description rdf:about="" xmlns:crs="http://ns.adobe.com/camera-raw-settings/1.0/" crs:PresetType="Normal" crs:UUID="AA0D0744-D446-40A6-B14B-E17CC6B73FDD" crs:Version="15.3" crs:ProcessVersion="11.0" crs:HasSettings="True" crs:Contrast2012="16" crs:Highlights2012="-30" crs:Shadows2012="-20" crs:Whites2012="8" crs:Blacks2012="-28" crs:Texture="-3" crs:Clarity2012="-1" crs:Dehaze="-1" crs:Vibrance="-9" crs:Saturation="-6" crs:GrainAmount="22" crs:PostCropVignetteAmount="-8" crs:ColorGradeShadowHue="220" crs:ColorGradeShadowSat="7" crs:ColorGradeHighlightHue="45" crs:ColorGradeHighlightSat="5" crs:SaturationAdjustmentGreen="-42" crs:SaturationAdjustmentBlue="-28" crs:LuminanceAdjustmentOrange="10"><crs:Name><rdf:Alt><rdf:li xml:lang="x-default">Midnight Flash — Cool</rdf:li></rdf:Alt></crs:Name></rdf:Description></rdf:RDF></x:xmpmeta>