presets/Midnight-Flash/07-Midnight-Flash-Moody.xmp
<x:xmpmeta xmlns:x="adobe:ns:meta/"><rdf:RDF xmlns:rdf="http://www.w3.org/1999/02/22-rdf-syntax-ns#"><rdf:Description rdf:about="" xmlns:crs="http://ns.adobe.com/camera-raw-settings/1.0/" crs:PresetType="Normal" crs:UUID="E4DFB8A4-D14D-4F12-BC01-8F064B16D2D4" crs:Version="15.3" crs:ProcessVersion="11.0" crs:HasSettings="True" crs:Contrast2012="22" crs:Highlights2012="-34" crs:Shadows2012="-36" crs:Whites2012="5" crs:Blacks2012="-42" crs:Texture="-2" crs:Clarity2012="1" crs:Dehaze="2" crs:Vibrance="-14" crs:Saturation="-8" crs:GrainAmount="28" crs:PostCropVignetteAmount="-16" crs:ColorGradeShadowHue="28" crs:ColorGradeShadowSat="18" crs:SaturationAdjustmentGreen="-42" crs:SaturationAdjustmentBlue="-28" crs:LuminanceAdjustmentOrange="10"><crs:Name><rdf:Alt><rdf:li xml:lang="x-default">Midnight Flash — Moody</rdf:li></rdf:Alt></crs:Name></rdf:Description></rdf:RDF></x:xmpmeta>