presets/Midnight-Flash/08-Midnight-Flash-Bright.xmp
<x:xmpmeta xmlns:x="adobe:ns:meta/"><rdf:RDF xmlns:rdf="http://www.w3.org/1999/02/22-rdf-syntax-ns#"><rdf:Description rdf:about="" xmlns:crs="http://ns.adobe.com/camera-raw-settings/1.0/" crs:PresetType="Normal" crs:UUID="89BBDEBA-71C4-4D7E-A554-68A77A4080FF" crs:Version="15.3" crs:ProcessVersion="11.0" crs:HasSettings="True" crs:Contrast2012="8" crs:Highlights2012="-40" crs:Shadows2012="4" crs:Whites2012="6" crs:Blacks2012="-18" crs:Texture="-5" crs:Clarity2012="-4" crs:Dehaze="-3" crs:Vibrance="-6" crs:Saturation="-4" crs:GrainAmount="16" crs:PostCropVignetteAmount="-4" crs:SaturationAdjustmentGreen="-42" crs:SaturationAdjustmentBlue="-28" crs:LuminanceAdjustmentOrange="12"><crs:Name><rdf:Alt><rdf:li xml:lang="x-default">Midnight Flash — Bright</rdf:li></rdf:Alt></crs:Name></rdf:Description></rdf:RDF></x:xmpmeta>