presets/Midnight-Flash/09-Midnight-Flash-Dark.xmp
<x:xmpmeta xmlns:x="adobe:ns:meta/"><rdf:RDF xmlns:rdf="http://www.w3.org/1999/02/22-rdf-syntax-ns#"><rdf:Description rdf:about="" xmlns:crs="http://ns.adobe.com/camera-raw-settings/1.0/" crs:PresetType="Normal" crs:UUID="860C7672-9EDA-4EA3-8057-E8510C7ABFA7" crs:Version="15.3" crs:ProcessVersion="11.0" crs:HasSettings="True" crs:Contrast2012="20" crs:Highlights2012="-45" crs:Shadows2012="-32" crs:Whites2012="0" crs:Blacks2012="-40" crs:Texture="-2" crs:Clarity2012="0" crs:Dehaze="1" crs:Vibrance="-10" crs:Saturation="-6" crs:GrainAmount="26" crs:PostCropVignetteAmount="-14" crs:SaturationAdjustmentGreen="-42" crs:SaturationAdjustmentBlue="-28" crs:LuminanceAdjustmentOrange="8"><crs:Name><rdf:Alt><rdf:li xml:lang="x-default">Midnight Flash — Dark</rdf:li></rdf:Alt></crs:Name></rdf:Description></rdf:RDF></x:xmpmeta>