presets/Midnight-Flash/10-Midnight-Flash-Portrait.xmp
<x:xmpmeta xmlns:x="adobe:ns:meta/"><rdf:RDF xmlns:rdf="http://www.w3.org/1999/02/22-rdf-syntax-ns#"><rdf:Description rdf:about="" xmlns:crs="http://ns.adobe.com/camera-raw-settings/1.0/" crs:PresetType="Normal" crs:UUID="2B732B4B-0977-4852-8E68-27C6A01012FE" crs:Version="15.3" crs:ProcessVersion="11.0" crs:HasSettings="True" crs:Contrast2012="9" crs:Highlights2012="-34" crs:Shadows2012="-12" crs:Whites2012="4" crs:Blacks2012="-22" crs:Texture="-12" crs:Clarity2012="-8" crs:Dehaze="-2" crs:Vibrance="-7" crs:Saturation="-5" crs:GrainAmount="14" crs:PostCropVignetteAmount="-5" crs:SaturationAdjustmentRed="-6" crs:SaturationAdjustmentOrange="-5" crs:LuminanceAdjustmentOrange="14" crs:SaturationAdjustmentGreen="-38" crs:SaturationAdjustmentBlue="-26"><crs:Name><rdf:Alt><rdf:li xml:lang="x-default">Midnight Flash — Portrait</rdf:li></rdf:Alt></crs:Name></rdf:Description></rdf:RDF></x:xmpmeta>