presets/Midnight-Flash/11-Midnight-Flash-Street.xmp
<x:xmpmeta xmlns:x="adobe:ns:meta/"><rdf:RDF xmlns:rdf="http://www.w3.org/1999/02/22-rdf-syntax-ns#"><rdf:Description rdf:about="" xmlns:crs="http://ns.adobe.com/camera-raw-settings/1.0/" crs:PresetType="Normal" crs:UUID="BD66578C-FA77-4D11-A1AB-B5C1B63777E4" crs:Version="15.3" crs:ProcessVersion="11.0" crs:HasSettings="True" crs:Contrast2012="24" crs:Highlights2012="-26" crs:Shadows2012="-28" crs:Whites2012="12" crs:Blacks2012="-34" crs:Texture="1" crs:Clarity2012="4" crs:Dehaze="2" crs:Vibrance="-8" crs:Saturation="-5" crs:GrainAmount="30" crs:PostCropVignetteAmount="-10" crs:SaturationAdjustmentGreen="-42" crs:SaturationAdjustmentBlue="-28" crs:LuminanceAdjustmentOrange="9"><crs:Name><rdf:Alt><rdf:li xml:lang="x-default">Midnight Flash — Street</rdf:li></rdf:Alt></crs:Name></rdf:Description></rdf:RDF></x:xmpmeta>