presets/Midnight-Flash/12-Midnight-Flash-Film.xmp
<x:xmpmeta xmlns:x="adobe:ns:meta/"><rdf:RDF xmlns:rdf="http://www.w3.org/1999/02/22-rdf-syntax-ns#"><rdf:Description rdf:about="" xmlns:crs="http://ns.adobe.com/camera-raw-settings/1.0/" crs:PresetType="Normal" crs:UUID="B56D12D2-7307-4D5B-BFE8-91C7D1ADCFB1" crs:Version="15.3" crs:ProcessVersion="11.0" crs:HasSettings="True" crs:Contrast2012="8" crs:Highlights2012="-38" crs:Shadows2012="-14" crs:Whites2012="-2" crs:Blacks2012="-12" crs:Texture="-7" crs:Clarity2012="-6" crs:Dehaze="-4" crs:Vibrance="-15" crs:Saturation="-8" crs:GrainAmount="38" crs:PostCropVignetteAmount="-9" crs:ColorGradeShadowHue="32" crs:ColorGradeShadowSat="14" crs:ColorGradeHighlightHue="52" crs:ColorGradeHighlightSat="10" crs:SaturationAdjustmentGreen="-44" crs:SaturationAdjustmentBlue="-30" crs:LuminanceAdjustmentOrange="10"><crs:Name><rdf:Alt><rdf:li xml:lang="x-default">Midnight Flash — Film</rdf:li></rdf:Alt></crs:Name></rdf:Description></rdf:RDF></x:xmpmeta>