presets/Midnight-Flash/13-Midnight-Flash-Matte.xmp
<x:xmpmeta xmlns:x="adobe:ns:meta/"><rdf:RDF xmlns:rdf="http://www.w3.org/1999/02/22-rdf-syntax-ns#"><rdf:Description rdf:about="" xmlns:crs="http://ns.adobe.com/camera-raw-settings/1.0/" crs:PresetType="Normal" crs:UUID="0A2AE37B-6176-4B22-99CA-C34D8C4A4B1A" crs:Version="15.3" crs:ProcessVersion="11.0" crs:HasSettings="True" crs:Contrast2012="5" crs:Highlights2012="-34" crs:Shadows2012="-8" crs:Whites2012="1" crs:Blacks2012="-8" crs:Texture="-5" crs:Clarity2012="-5" crs:Dehaze="-4" crs:Vibrance="-13" crs:Saturation="-7" crs:GrainAmount="26" crs:PostCropVignetteAmount="-6" crs:SaturationAdjustmentGreen="-42" crs:SaturationAdjustmentBlue="-28" crs:LuminanceAdjustmentOrange="10"><crs:Name><rdf:Alt><rdf:li xml:lang="x-default">Midnight Flash — Matte</rdf:li></rdf:Alt></crs:Name><crs:ToneCurvePV2012><rdf:Seq><rdf:li>0, 16</rdf:li><rdf:li>64, 65</rdf:li><rdf:li>128, 128</rdf:li><rdf:li>255, 246</rdf:li></rdf:Seq></crs:ToneCurvePV2012></rdf:Description></rdf:RDF></x:xmpmeta>