presets/Midnight-Flash/14-Midnight-Flash-Cinematic.xmp
<x:xmpmeta xmlns:x="adobe:ns:meta/"><rdf:RDF xmlns:rdf="http://www.w3.org/1999/02/22-rdf-syntax-ns#"><rdf:Description rdf:about="" xmlns:crs="http://ns.adobe.com/camera-raw-settings/1.0/" crs:PresetType="Normal" crs:UUID="21264E69-D2BB-4ECA-A264-2104F0BC8FCB" crs:Version="15.3" crs:ProcessVersion="11.0" crs:HasSettings="True" crs:Contrast2012="20" crs:Highlights2012="-32" crs:Shadows2012="-27" crs:Whites2012="6" crs:Blacks2012="-32" crs:Texture="-3" crs:Clarity2012="0" crs:Dehaze="1" crs:Vibrance="-10" crs:Saturation="-6" crs:GrainAmount="22" crs:PostCropVignetteAmount="-12" crs:ColorGradeShadowHue="215" crs:ColorGradeShadowSat="9" crs:ColorGradeMidtoneHue="34" crs:ColorGradeMidtoneSat="8" crs:ColorGradeHighlightHue="48" crs:ColorGradeHighlightSat="9" crs:SaturationAdjustmentGreen="-42" crs:SaturationAdjustmentBlue="-28" crs:LuminanceAdjustmentOrange="10"><crs:Name><rdf:Alt><rdf:li xml:lang="x-default">Midnight Flash — Cinematic</rdf:li></rdf:Alt></crs:Name></rdf:Description></rdf:RDF></x:xmpmeta>