presets/Midnight-Flash/15-Midnight-Flash-Night.xmp
<x:xmpmeta xmlns:x="adobe:ns:meta/"><rdf:RDF xmlns:rdf="http://www.w3.org/1999/02/22-rdf-syntax-ns#"><rdf:Description rdf:about="" xmlns:crs="http://ns.adobe.com/camera-raw-settings/1.0/" crs:PresetType="Normal" crs:UUID="AE6829E0-51D3-46E0-9113-6AC07B3A37F8" crs:Version="15.3" crs:ProcessVersion="11.0" crs:HasSettings="True" crs:Contrast2012="14" crs:Highlights2012="-48" crs:Shadows2012="-18" crs:Whites2012="-4" crs:Blacks2012="-30" crs:Texture="-8" crs:Clarity2012="-5" crs:Dehaze="-1" crs:Vibrance="-12" crs:Saturation="-7" crs:GrainAmount="34" crs:PostCropVignetteAmount="-13" crs:ColorGradeShadowHue="28" crs:ColorGradeShadowSat="14" crs:SaturationAdjustmentGreen="-42" crs:SaturationAdjustmentBlue="-30" crs:LuminanceAdjustmentOrange="10"><crs:Name><rdf:Alt><rdf:li xml:lang="x-default">Midnight Flash — Night</rdf:li></rdf:Alt></crs:Name></rdf:Description></rdf:RDF></x:xmpmeta>