presets/Midnight-Flash/16-Midnight-Flash-Analog.xmp
<x:xmpmeta xmlns:x="adobe:ns:meta/"><rdf:RDF xmlns:rdf="http://www.w3.org/1999/02/22-rdf-syntax-ns#"><rdf:Description rdf:about="" xmlns:crs="http://ns.adobe.com/camera-raw-settings/1.0/" crs:PresetType="Normal" crs:UUID="CD65C9B9-B22B-4DFE-A8D3-1948405CE229" crs:Version="15.3" crs:ProcessVersion="11.0" crs:HasSettings="True" crs:Contrast2012="10" crs:Highlights2012="-32" crs:Shadows2012="-16" crs:Whites2012="-5" crs:Blacks2012="-15" crs:Texture="-9" crs:Clarity2012="-7" crs:Dehaze="-5" crs:Vibrance="-16" crs:Saturation="-9" crs:GrainAmount="45" crs:GrainSize="28" crs:GrainFrequency="55" crs:PostCropVignetteAmount="-11" crs:ColorGradeShadowHue="30" crs:ColorGradeShadowSat="16" crs:ColorGradeHighlightHue="52" crs:ColorGradeHighlightSat="12" crs:SaturationAdjustmentGreen="-44" crs:SaturationAdjustmentBlue="-30" crs:LuminanceAdjustmentOrange="10"><crs:Name><rdf:Alt><rdf:li xml:lang="x-default">Midnight Flash — Analog</rdf:li></rdf:Alt></crs:Name><crs:ToneCurvePV2012><rdf:Seq><rdf:li>0, 16</rdf:li><rdf:li>64, 61</rdf:li><rdf:li>128, 128</rdf:li><rdf:li>192, 195</rdf:li><rdf:li>255, 236</rdf:li></rdf:Seq></crs:ToneCurvePV2012></rdf:Description></rdf:RDF></x:xmpmeta>