presets/Midnight-Flash/17-Midnight-Flash-Signature.xmp
<x:xmpmeta xmlns:x="adobe:ns:meta/"><rdf:RDF xmlns:rdf="http://www.w3.org/1999/02/22-rdf-syntax-ns#"><rdf:Description rdf:about="" xmlns:crs="http://ns.adobe.com/camera-raw-settings/1.0/" crs:PresetType="Normal" crs:UUID="D75F7B37-B47D-4BAD-B29E-0EB88B9A74BA" crs:Version="15.3" crs:ProcessVersion="11.0" crs:HasSettings="True" crs:Contrast2012="15" crs:Highlights2012="-32" crs:Shadows2012="-20" crs:Whites2012="6" crs:Blacks2012="-28" crs:Texture="-5" crs:Clarity2012="-3" crs:Dehaze="-2" crs:Vibrance="-9" crs:Saturation="-5" crs:GrainAmount="22" crs:PostCropVignetteAmount="-8" crs:ColorGradeShadowHue="31" crs:ColorGradeShadowSat="11" crs:ColorGradeMidtoneHue="39" crs:ColorGradeMidtoneSat="7" crs:ColorGradeHighlightHue="49" crs:ColorGradeHighlightSat="8" crs:SaturationAdjustmentGreen="-42" crs:SaturationAdjustmentBlue="-28" crs:LuminanceAdjustmentOrange="10"><crs:Name><rdf:Alt><rdf:li xml:lang="x-default">Midnight Flash — Signature</rdf:li></rdf:Alt></crs:Name><crs:ToneCurvePV2012><rdf:Seq><rdf:li>0, 6</rdf:li><rdf:li>64, 59</rdf:li><rdf:li>128, 129</rdf:li><rdf:li>192, 201</rdf:li><rdf:li>255, 249</rdf:li></rdf:Seq></crs:ToneCurvePV2012></rdf:Description></rdf:RDF></x:xmpmeta>