presets/Daydream-Film/01-Daydream-Film-Original.xmp
<?xpacket begin="﻿" id="W5M0MpCehiHzreSzNTczkc9d"?><x:xmpmeta xmlns:x="adobe:ns:meta/"><rdf:RDF xmlns:rdf="http://www.w3.org/1999/02/22-rdf-syntax-ns#"><rdf:Description rdf:about="" xmlns:crs="http://ns.adobe.com/camera-raw-settings/1.0/" crs:PresetType="Normal" crs:UUID="DDF00001-1111-4A11-8B11-000000000001" crs:Version="15.0" crs:ProcessVersion="11.0" crs:Name="01 Daydream Film Original" crs:Contrast2012="+10" crs:Highlights2012="-18" crs:Shadows2012="+24" crs:Whites2012="-8" crs:Blacks2012="+8" crs:Texture="-5" crs:Clarity2012="-3" crs:Dehaze="-3" crs:Vibrance="+8" crs:Saturation="-4" crs:SaturationAdjustmentYellow="+10" crs:SaturationAdjustmentGreen="-18" crs:SaturationAdjustmentBlue="-12" crs:ColorGradeHighlightHue="48" crs:ColorGradeHighlightSat="18" crs:ColorGradeShadowHue="205" crs:ColorGradeShadowSat="5" crs:GrainAmount="20" crs:GrainSize="25"/></rdf:RDF></x:xmpmeta><?xpacket end="w"?>