presets/Daydream-Film/02-Daydream-Film-Clean.xmp
<?xpacket begin="﻿" id="W5M0MpCehiHzreSzNTczkc9d"?><x:xmpmeta xmlns:x="adobe:ns:meta/"><rdf:RDF xmlns:rdf="http://www.w3.org/1999/02/22-rdf-syntax-ns#"><rdf:Description rdf:about="" xmlns:crs="http://ns.adobe.com/camera-raw-settings/1.0/" crs:PresetType="Normal" crs:UUID="DDF00002-1111-4A11-8B11-000000000002" crs:Version="15.0" crs:ProcessVersion="11.0" crs:Name="02 Daydream Film Clean" crs:Contrast2012="+6" crs:Highlights2012="-12" crs:Shadows2012="+18" crs:Whites2012="-5" crs:Blacks2012="+5" crs:Texture="-3" crs:Clarity2012="0" crs:Dehaze="-2" crs:Vibrance="+6" crs:Saturation="-2" crs:SaturationAdjustmentYellow="+6" crs:SaturationAdjustmentGreen="-12" crs:SaturationAdjustmentBlue="-8" crs:ColorGradeHighlightHue="48" crs:ColorGradeHighlightSat="8" crs:ColorGradeShadowHue="205" crs:ColorGradeShadowSat="3" crs:GrainAmount="14" crs:GrainSize="16"/></rdf:RDF></x:xmpmeta><?xpacket end="w"?>