presets/Daydream-Film/03-Daydream-Film-Soft.xmp
<?xpacket begin="﻿" id="W5M0MpCehiHzreSzNTczkc9d"?><x:xmpmeta xmlns:x="adobe:ns:meta/"><rdf:RDF xmlns:rdf="http://www.w3.org/1999/02/22-rdf-syntax-ns#"><rdf:Description rdf:about="" xmlns:crs="http://ns.adobe.com/camera-raw-settings/1.0/" crs:PresetType="Normal" crs:UUID="DDF00003-1111-4A11-8B11-000000000003" crs:Version="15.0" crs:ProcessVersion="11.0" crs:Name="03 Daydream Film Soft" crs:Contrast2012="+5" crs:Highlights2012="-24" crs:Shadows2012="+28" crs:Whites2012="-10" crs:Blacks2012="+12" crs:Texture="-7" crs:Clarity2012="-6" crs:Dehaze="-4" crs:Vibrance="+6" crs:Saturation="-5" crs:SaturationAdjustmentYellow="+12" crs:SaturationAdjustmentGreen="-16" crs:SaturationAdjustmentBlue="-10" crs:ColorGradeHighlightHue="48" crs:ColorGradeHighlightSat="14" crs:ColorGradeShadowHue="205" crs:ColorGradeShadowSat="4" crs:GrainAmount="22" crs:GrainSize="24"/></rdf:RDF></x:xmpmeta><?xpacket end="w"?>