presets/Daydream-Film/04-Daydream-Film-Golden.xmp
<?xpacket begin="﻿" id="W5M0MpCehiHzreSzNTczkc9d"?><x:xmpmeta xmlns:x="adobe:ns:meta/"><rdf:RDF xmlns:rdf="http://www.w3.org/1999/02/22-rdf-syntax-ns#"><rdf:Description rdf:about="" xmlns:crs="http://ns.adobe.com/camera-raw-settings/1.0/" crs:PresetType="Normal" crs:UUID="DDF00004-1111-4A11-8B11-000000000004" crs:Version="15.0" crs:ProcessVersion="11.0" crs:Name="04 Daydream Film Golden" crs:Contrast2012="+14" crs:Highlights2012="-16" crs:Shadows2012="+22" crs:Whites2012="-7" crs:Blacks2012="+7" crs:Texture="-4" crs:Clarity2012="-2" crs:Dehaze="-3" crs:Vibrance="+10" crs:Saturation="-2" crs:SaturationAdjustmentYellow="+14" crs:SaturationAdjustmentGreen="-20" crs:SaturationAdjustmentBlue="-14" crs:ColorGradeHighlightHue="48" crs:ColorGradeHighlightSat="24" crs:ColorGradeShadowHue="205" crs:ColorGradeShadowSat="4" crs:GrainAmount="18" crs:GrainSize="22"/></rdf:RDF></x:xmpmeta><?xpacket end="w"?>