presets/Daydream-Film/05-Daydream-Film-Cream.xmp
<?xpacket begin="﻿" id="W5M0MpCehiHzreSzNTczkc9d"?><x:xmpmeta xmlns:x="adobe:ns:meta/"><rdf:RDF xmlns:rdf="http://www.w3.org/1999/02/22-rdf-syntax-ns#"><rdf:Description rdf:about="" xmlns:crs="http://ns.adobe.com/camera-raw-settings/1.0/" crs:PresetType="Normal" crs:UUID="DDF00005-1111-4A11-8B11-000000000005" crs:Version="15.0" crs:ProcessVersion="11.0" crs:Name="05 Daydream Film Cream" crs:Contrast2012="+4" crs:Highlights2012="-22" crs:Shadows2012="+30" crs:Whites2012="-12" crs:Blacks2012="+14" crs:Texture="-8" crs:Clarity2012="-7" crs:Dehaze="-4" crs:Vibrance="+5" crs:Saturation="-6" crs:SaturationAdjustmentYellow="+8" crs:SaturationAdjustmentGreen="-15" crs:SaturationAdjustmentBlue="-10" crs:ColorGradeHighlightHue="46" crs:ColorGradeHighlightSat="16" crs:ColorGradeShadowHue="205" crs:ColorGradeShadowSat="3" crs:GrainAmount="16" crs:GrainSize="20"/></rdf:RDF></x:xmpmeta><?xpacket end="w"?>