presets/Daydream-Film/06-Daydream-Film-Portrait.xmp
<?xpacket begin="﻿" id="W5M0MpCehiHzreSzNTczkc9d"?><x:xmpmeta xmlns:x="adobe:ns:meta/"><rdf:RDF xmlns:rdf="http://www.w3.org/1999/02/22-rdf-syntax-ns#"><rdf:Description rdf:about="" xmlns:crs="http://ns.adobe.com/camera-raw-settings/1.0/" crs:PresetType="Normal" crs:UUID="DDF00006-1111-4A11-8B11-000000000006" crs:Version="15.0" crs:ProcessVersion="11.0" crs:Name="06 Daydream Film Portrait" crs:Contrast2012="+8" crs:Highlights2012="-18" crs:Shadows2012="+25" crs:Whites2012="-9" crs:Blacks2012="+10" crs:Texture="-8" crs:Clarity2012="-5" crs:Dehaze="-2" crs:Vibrance="+6" crs:Saturation="-3" crs:SaturationAdjustmentRed="-6" crs:SaturationAdjustmentOrange="+1" crs:LuminanceAdjustmentOrange="+10" crs:SaturationAdjustmentYellow="+6" crs:SaturationAdjustmentGreen="-16" crs:ColorGradeHighlightHue="46" crs:ColorGradeHighlightSat="14" crs:GrainAmount="14" crs:GrainSize="18"/></rdf:RDF></x:xmpmeta><?xpacket end="w"?>