presets/Daydream-Film/07-Daydream-Film-Skin-Safe.xmp
<?xpacket begin="﻿" id="W5M0MpCehiHzreSzNTczkc9d"?><x:xmpmeta xmlns:x="adobe:ns:meta/"><rdf:RDF xmlns:rdf="http://www.w3.org/1999/02/22-rdf-syntax-ns#"><rdf:Description rdf:about="" xmlns:crs="http://ns.adobe.com/camera-raw-settings/1.0/" crs:PresetType="Normal" crs:UUID="DDF00007-1111-4A11-8B11-000000000007" crs:Version="15.0" crs:ProcessVersion="11.0" crs:Name="07 Daydream Film Skin Safe" crs:Contrast2012="+6" crs:Highlights2012="-14" crs:Shadows2012="+22" crs:Whites2012="-7" crs:Blacks2012="+8" crs:Texture="-6" crs:Clarity2012="-3" crs:Dehaze="-2" crs:Vibrance="+5" crs:Saturation="-3" crs:SaturationAdjustmentRed="-8" crs:SaturationAdjustmentOrange="-1" crs:LuminanceAdjustmentOrange="+12" crs:SaturationAdjustmentYellow="+4" crs:SaturationAdjustmentGreen="-14" crs:ColorGradeHighlightHue="46" crs:ColorGradeHighlightSat="10" crs:GrainAmount="10" crs:GrainSize="16"/></rdf:RDF></x:xmpmeta><?xpacket end="w"?>