presets/Daydream-Film/08-Daydream-Film-Field.xmp
<?xpacket begin="﻿" id="W5M0MpCehiHzreSzNTczkc9d"?><x:xmpmeta xmlns:x="adobe:ns:meta/"><rdf:RDF xmlns:rdf="http://www.w3.org/1999/02/22-rdf-syntax-ns#"><rdf:Description rdf:about="" xmlns:crs="http://ns.adobe.com/camera-raw-settings/1.0/" crs:PresetType="Normal" crs:UUID="DDF00008-1111-4A11-8B11-000000000008" crs:Version="15.0" crs:ProcessVersion="11.0" crs:Name="08 Daydream Film Field" crs:Contrast2012="+12" crs:Highlights2012="-18" crs:Shadows2012="+22" crs:Whites2012="-7" crs:Blacks2012="+7" crs:Texture="-4" crs:Clarity2012="-2" crs:Dehaze="-2" crs:Vibrance="+8" crs:Saturation="-3" crs:HueAdjustmentGreen="+18" crs:SaturationAdjustmentYellow="+14" crs:SaturationAdjustmentGreen="-24" crs:LuminanceAdjustmentGreen="+8" crs:SaturationAdjustmentBlue="-12" crs:ColorGradeHighlightHue="48" crs:ColorGradeHighlightSat="16" crs:GrainAmount="16" crs:GrainSize="20"/></rdf:RDF></x:xmpmeta><?xpacket end="w"?>