presets/Daydream-Film/09-Daydream-Film-Pastel.xmp
<?xpacket begin="﻿" id="W5M0MpCehiHzreSzNTczkc9d"?><x:xmpmeta xmlns:x="adobe:ns:meta/"><rdf:RDF xmlns:rdf="http://www.w3.org/1999/02/22-rdf-syntax-ns#"><rdf:Description rdf:about="" xmlns:crs="http://ns.adobe.com/camera-raw-settings/1.0/" crs:PresetType="Normal" crs:UUID="DDF00009-1111-4A11-8B11-000000000009" crs:Version="15.0" crs:ProcessVersion="11.0" crs:Name="09 Daydream Film Pastel" crs:Contrast2012="+2" crs:Highlights2012="-28" crs:Shadows2012="+32" crs:Whites2012="-14" crs:Blacks2012="+16" crs:Texture="-8" crs:Clarity2012="-8" crs:Dehaze="-5" crs:Vibrance="+2" crs:Saturation="-8" crs:SaturationAdjustmentYellow="+10" crs:SaturationAdjustmentGreen="-22" crs:SaturationAdjustmentAqua="-14" crs:SaturationAdjustmentBlue="-16" crs:ColorGradeHighlightHue="48" crs:ColorGradeHighlightSat="16" crs:GrainAmount="16" crs:GrainSize="20"/></rdf:RDF></x:xmpmeta><?xpacket end="w"?>