presets/Daydream-Film/10-Daydream-Film-Bright.xmp
<?xpacket begin="﻿" id="W5M0MpCehiHzreSzNTczkc9d"?><x:xmpmeta xmlns:x="adobe:ns:meta/"><rdf:RDF xmlns:rdf="http://www.w3.org/1999/02/22-rdf-syntax-ns#"><rdf:Description rdf:about="" xmlns:crs="http://ns.adobe.com/camera-raw-settings/1.0/" crs:PresetType="Normal" crs:UUID="DDF00010-1111-4A11-8B11-000000000010" crs:Version="15.0" crs:ProcessVersion="11.0" crs:Name="10 Daydream Film Bright" crs:Contrast2012="+8" crs:Highlights2012="-26" crs:Shadows2012="+34" crs:Whites2012="-10" crs:Blacks2012="+14" crs:Texture="-5" crs:Clarity2012="-5" crs:Dehaze="-3" crs:Vibrance="+7" crs:Saturation="-4" crs:SaturationAdjustmentYellow="+10" crs:SaturationAdjustmentGreen="-18" crs:SaturationAdjustmentBlue="-12" crs:LuminanceAdjustmentOrange="+12" crs:LuminanceAdjustmentYellow="+14" crs:ColorGradeHighlightHue="48" crs:ColorGradeHighlightSat="14" crs:GrainAmount="12" crs:GrainSize="18"/></rdf:RDF></x:xmpmeta><?xpacket end="w"?>