presets/Daydream-Film/11-Daydream-Film-Backlight.xmp
<?xpacket begin="﻿" id="W5M0MpCehiHzreSzNTczkc9d"?><x:xmpmeta xmlns:x="adobe:ns:meta/"><rdf:RDF xmlns:rdf="http://www.w3.org/1999/02/22-rdf-syntax-ns#"><rdf:Description rdf:about="" xmlns:crs="http://ns.adobe.com/camera-raw-settings/1.0/" crs:PresetType="Normal" crs:UUID="DDF00011-1111-4A11-8B11-000000000011" crs:Version="15.0" crs:ProcessVersion="11.0" crs:Name="11 Daydream Film Backlight" crs:Contrast2012="+5" crs:Highlights2012="-30" crs:Shadows2012="+36" crs:Whites2012="-14" crs:Blacks2012="+18" crs:Texture="-6" crs:Clarity2012="-7" crs:Dehaze="-5" crs:Vibrance="+6" crs:Saturation="-5" crs:SaturationAdjustmentYellow="+12" crs:SaturationAdjustmentGreen="-20" crs:SaturationAdjustmentBlue="-14" crs:ColorGradeHighlightHue="48" crs:ColorGradeHighlightSat="18" crs:ColorGradeShadowHue="205" crs:ColorGradeShadowSat="4" crs:GrainAmount="14" crs:GrainSize="20"/></rdf:RDF></x:xmpmeta><?xpacket end="w"?>