presets/Daydream-Film/12-Daydream-Film-Muted.xmp
<?xpacket begin="﻿" id="W5M0MpCehiHzreSzNTczkc9d"?><x:xmpmeta xmlns:x="adobe:ns:meta/"><rdf:RDF xmlns:rdf="http://www.w3.org/1999/02/22-rdf-syntax-ns#"><rdf:Description rdf:about="" xmlns:crs="http://ns.adobe.com/camera-raw-settings/1.0/" crs:PresetType="Normal" crs:UUID="DDF00012-1111-4A11-8B11-000000000012" crs:Version="15.0" crs:ProcessVersion="11.0" crs:Name="12 Daydream Film Muted" crs:Contrast2012="-4" crs:Highlights2012="-20" crs:Shadows2012="+26" crs:Whites2012="-10" crs:Blacks2012="+12" crs:Texture="-6" crs:Clarity2012="-8" crs:Dehaze="-4" crs:Vibrance="0" crs:Saturation="-10" crs:SaturationAdjustmentYellow="+8" crs:SaturationAdjustmentGreen="-26" crs:SaturationAdjustmentAqua="-18" crs:SaturationAdjustmentBlue="-20" crs:ColorGradeHighlightHue="48" crs:ColorGradeHighlightSat="12" crs:GrainAmount="14" crs:GrainSize="16"/></rdf:RDF></x:xmpmeta><?xpacket end="w"?>