presets/Daydream-Film/13-Daydream-Film-Analog.xmp
<?xpacket begin="﻿" id="W5M0MpCehiHzreSzNTczkc9d"?><x:xmpmeta xmlns:x="adobe:ns:meta/"><rdf:RDF xmlns:rdf="http://www.w3.org/1999/02/22-rdf-syntax-ns#"><rdf:Description rdf:about="" xmlns:crs="http://ns.adobe.com/camera-raw-settings/1.0/" crs:PresetType="Normal" crs:UUID="DDF00013-1111-4A11-8B11-000000000013" crs:Version="15.0" crs:ProcessVersion="11.0" crs:Name="13 Daydream Film Analog" crs:Contrast2012="+6" crs:Highlights2012="-22" crs:Shadows2012="+26" crs:Whites2012="-12" crs:Blacks2012="+14" crs:Texture="-6" crs:Clarity2012="-6" crs:Dehaze="-4" crs:Vibrance="+4" crs:Saturation="-6" crs:SaturationAdjustmentYellow="+16" crs:SaturationAdjustmentGreen="-22" crs:SaturationAdjustmentBlue="-16" crs:ColorGradeHighlightHue="48" crs:ColorGradeHighlightSat="30" crs:ColorGradeShadowHue="205" crs:ColorGradeShadowSat="6" crs:GrainAmount="30" crs:GrainSize="30" crs:GrainFrequency="60"/></rdf:RDF></x:xmpmeta><?xpacket end="w"?>