presets/Daydream-Film/14-Daydream-Film-Matte.xmp
<?xpacket begin="﻿" id="W5M0MpCehiHzreSzNTczkc9d"?><x:xmpmeta xmlns:x="adobe:ns:meta/"><rdf:RDF xmlns:rdf="http://www.w3.org/1999/02/22-rdf-syntax-ns#"><rdf:Description rdf:about="" xmlns:crs="http://ns.adobe.com/camera-raw-settings/1.0/" crs:PresetType="Normal" crs:UUID="DDF00014-1111-4A11-8B11-000000000014" crs:Version="15.0" crs:ProcessVersion="11.0" crs:Name="14 Daydream Film Matte" crs:Contrast2012="+2" crs:Highlights2012="-26" crs:Shadows2012="+30" crs:Whites2012="-15" crs:Blacks2012="+18" crs:Texture="-8" crs:Clarity2012="-10" crs:Dehaze="-5" crs:Vibrance="+3" crs:Saturation="-7" crs:SaturationAdjustmentYellow="+12" crs:SaturationAdjustmentGreen="-18" crs:SaturationAdjustmentBlue="-14" crs:ColorGradeHighlightHue="48" crs:ColorGradeHighlightSat="22" crs:GrainAmount="24" crs:GrainSize="24"/></rdf:RDF></x:xmpmeta><?xpacket end="w"?>