presets/Daydream-Film/15-Daydream-Film-Wedding.xmp
<?xpacket begin="﻿" id="W5M0MpCehiHzreSzNTczkc9d"?><x:xmpmeta xmlns:x="adobe:ns:meta/"><rdf:RDF xmlns:rdf="http://www.w3.org/1999/02/22-rdf-syntax-ns#"><rdf:Description rdf:about="" xmlns:crs="http://ns.adobe.com/camera-raw-settings/1.0/" crs:PresetType="Normal" crs:UUID="DDF00015-1111-4A11-8B11-000000000015" crs:Version="15.0" crs:ProcessVersion="11.0" crs:Name="15 Daydream Film Wedding" crs:Contrast2012="+5" crs:Highlights2012="-24" crs:Shadows2012="+34" crs:Whites2012="-12" crs:Blacks2012="+16" crs:Texture="-7" crs:Clarity2012="-7" crs:Dehaze="-4" crs:Vibrance="+5" crs:Saturation="-4" crs:SaturationAdjustmentRed="-5" crs:SaturationAdjustmentOrange="0" crs:LuminanceAdjustmentOrange="+12" crs:SaturationAdjustmentYellow="+6" crs:SaturationAdjustmentGreen="-16" crs:ColorGradeHighlightHue="48" crs:ColorGradeHighlightSat="12" crs:GrainAmount="12" crs:GrainSize="18"/></rdf:RDF></x:xmpmeta><?xpacket end="w"?>