presets/Daydream-Film/16-Daydream-Film-Travel.xmp
<?xpacket begin="﻿" id="W5M0MpCehiHzreSzNTczkc9d"?><x:xmpmeta xmlns:x="adobe:ns:meta/"><rdf:RDF xmlns:rdf="http://www.w3.org/1999/02/22-rdf-syntax-ns#"><rdf:Description rdf:about="" xmlns:crs="http://ns.adobe.com/camera-raw-settings/1.0/" crs:PresetType="Normal" crs:UUID="DDF00016-1111-4A11-8B11-000000000016" crs:Version="15.0" crs:ProcessVersion="11.0" crs:Name="16 Daydream Film Travel" crs:Contrast2012="+10" crs:Highlights2012="-16" crs:Shadows2012="+22" crs:Whites2012="-6" crs:Blacks2012="+6" crs:Texture="-4" crs:Clarity2012="-2" crs:Dehaze="-2" crs:Vibrance="+8" crs:Saturation="-3" crs:SaturationAdjustmentYellow="+12" crs:SaturationAdjustmentGreen="-20" crs:SaturationAdjustmentBlue="-14" crs:ColorGradeHighlightHue="48" crs:ColorGradeHighlightSat="16" crs:GrainAmount="16" crs:GrainSize="20"/></rdf:RDF></x:xmpmeta><?xpacket end="w"?>