presets/Daydream-Film/17-Daydream-Film-Earthy.xmp
<?xpacket begin="﻿" id="W5M0MpCehiHzreSzNTczkc9d"?><x:xmpmeta xmlns:x="adobe:ns:meta/"><rdf:RDF xmlns:rdf="http://www.w3.org/1999/02/22-rdf-syntax-ns#"><rdf:Description rdf:about="" xmlns:crs="http://ns.adobe.com/camera-raw-settings/1.0/" crs:PresetType="Normal" crs:UUID="DDF00017-1111-4A11-8B11-000000000017" crs:Version="15.0" crs:ProcessVersion="11.0" crs:Name="17 Daydream Film Earthy" crs:Contrast2012="+8" crs:Highlights2012="-18" crs:Shadows2012="+24" crs:Whites2012="-8" crs:Blacks2012="+8" crs:Texture="-5" crs:Clarity2012="-4" crs:Dehaze="-3" crs:Vibrance="+6" crs:Saturation="-4" crs:HueAdjustmentGreen="+20" crs:SaturationAdjustmentYellow="+14" crs:SaturationAdjustmentGreen="-28" crs:SaturationAdjustmentBlue="-20" crs:ColorGradeHighlightHue="46" crs:ColorGradeHighlightSat="20" crs:GrainAmount="20" crs:GrainSize="24"/></rdf:RDF></x:xmpmeta><?xpacket end="w"?>