presets/Daydream-Film/18-Daydream-Film-Fade.xmp
<?xpacket begin="﻿" id="W5M0MpCehiHzreSzNTczkc9d"?><x:xmpmeta xmlns:x="adobe:ns:meta/"><rdf:RDF xmlns:rdf="http://www.w3.org/1999/02/22-rdf-syntax-ns#"><rdf:Description rdf:about="" xmlns:crs="http://ns.adobe.com/camera-raw-settings/1.0/" crs:PresetType="Normal" crs:UUID="DDF00018-1111-4A11-8B11-000000000018" crs:Version="15.0" crs:ProcessVersion="11.0" crs:Name="18 Daydream Film Fade" crs:Contrast2012="-2" crs:Highlights2012="-30" crs:Shadows2012="+34" crs:Whites2012="-16" crs:Blacks2012="+20" crs:Texture="-8" crs:Clarity2012="-12" crs:Dehaze="-6" crs:Vibrance="+2" crs:Saturation="-8" crs:SaturationAdjustmentYellow="+14" crs:SaturationAdjustmentGreen="-20" crs:SaturationAdjustmentBlue="-16" crs:ColorGradeHighlightHue="48" crs:ColorGradeHighlightSat="24" crs:GrainAmount="24" crs:GrainSize="28"/></rdf:RDF></x:xmpmeta><?xpacket end="w"?>