presets/Daydream-Film/19-Daydream-Film-Vivid.xmp
<?xpacket begin="﻿" id="W5M0MpCehiHzreSzNTczkc9d"?><x:xmpmeta xmlns:x="adobe:ns:meta/"><rdf:RDF xmlns:rdf="http://www.w3.org/1999/02/22-rdf-syntax-ns#"><rdf:Description rdf:about="" xmlns:crs="http://ns.adobe.com/camera-raw-settings/1.0/" crs:PresetType="Normal" crs:UUID="DDF00019-1111-4A11-8B11-000000000019" crs:Version="15.0" crs:ProcessVersion="11.0" crs:Name="19 Daydream Film Vivid" crs:Contrast2012="+14" crs:Highlights2012="-14" crs:Shadows2012="+20" crs:Whites2012="-5" crs:Blacks2012="+5" crs:Texture="-3" crs:Clarity2012="+2" crs:Dehaze="-1" crs:Vibrance="+14" crs:Saturation="0" crs:SaturationAdjustmentYellow="+16" crs:SaturationAdjustmentGreen="-16" crs:SaturationAdjustmentBlue="-10" crs:ColorGradeHighlightHue="48" crs:ColorGradeHighlightSat="14" crs:GrainAmount="14" crs:GrainSize="18"/></rdf:RDF></x:xmpmeta><?xpacket end="w"?>