presets/Daydream-Film/20-Daydream-Film-Signature.xmp
<?xpacket begin="﻿" id="W5M0MpCehiHzreSzNTczkc9d"?><x:xmpmeta xmlns:x="adobe:ns:meta/"><rdf:RDF xmlns:rdf="http://www.w3.org/1999/02/22-rdf-syntax-ns#"><rdf:Description rdf:about="" xmlns:crs="http://ns.adobe.com/camera-raw-settings/1.0/" crs:PresetType="Normal" crs:UUID="DDF00020-1111-4A11-8B11-000000000020" crs:Version="15.0" crs:ProcessVersion="11.0" crs:Name="20 Daydream Film Signature" crs:Contrast2012="+8" crs:Highlights2012="-20" crs:Shadows2012="+28" crs:Whites2012="-9" crs:Blacks2012="+11" crs:Texture="-5" crs:Clarity2012="-5" crs:Dehaze="-3" crs:Vibrance="+8" crs:Saturation="-4" crs:SaturationAdjustmentYellow="+10" crs:SaturationAdjustmentGreen="-20" crs:SaturationAdjustmentBlue="-12" crs:ColorGradeHighlightHue="48" crs:ColorGradeHighlightSat="18" crs:ColorGradeShadowHue="205" crs:ColorGradeShadowSat="5" crs:GrainAmount="18" crs:GrainSize="22"/></rdf:RDF></x:xmpmeta><?xpacket end="w"?>